X:37
T:Untitled [Atkinson #39]
M:3/4
L:1/4
S:Atkinson MS 1694
B:SOITD
Z:ps
K:GDor
G>AG|B2g|f2d|G>AG|B2dcAF|G>AG|B2g|f2df2c|cAf|cAF||/
f2d|dgd|dgd|f2d|dfd|cAF|f2d|dgd|Bfd|f2ccAf|cAF||

